tools/download-figma-icons/icons/solid/home.svg

<svg width="24" height="24" viewBox="0 0 24 24" fill="none" xmlns="http://www.w3.org/2000/svg">
<path fill-rule="evenodd" clip-rule="evenodd" d="M22.3903 12.5773C22.157 13.1323 21.6095 13.4998 21.002 13.4998H20.252V20.9848C20.252 21.8105 19.5777 22.4848 18.752 22.4848H15.752C14.9277 22.4848 14.252 21.8105 14.252 20.9848V14.9848H9.752V20.9848C9.752 21.8105 9.08525 22.4848 8.252 22.4848H5.252C4.4195 22.4848 3.752 21.8105 3.752 20.9848V13.4998H3.002C2.39525 13.4998 1.847 13.1323 1.61525 12.5773C1.382 12.0148 1.5095 11.3705 1.937 10.9423L10.937 1.94226C11.2295 1.65051 11.6203 1.49976 12.002 1.49976C12.3845 1.49976 12.7678 1.65051 13.0603 1.94226L22.0603 10.9423C22.487 11.3705 22.6153 12.0148 22.3903 12.5773Z" fill="black"/>
</svg>

<svg xmlns="http://www.w3.org/2000/svg" width="24" height="24" fill="none" viewBox="0 0 24 24"><path fill="currentColor" fill-rule="evenodd" d="M22.39 12.577a1.51 1.51 0 0 1-1.388.923h-.75v7.485c0 .826-.674 1.5-1.5 1.5h-3c-.824 0-1.5-.674-1.5-1.5v-6h-4.5v6c0 .826-.667 1.5-1.5 1.5h-3a1.5 1.5 0 0 1-1.5-1.5V13.5h-.75a1.5 1.5 0 0 1-1.065-2.558l9-9a1.52 1.52 0 0 1 1.065-.442 1.5 1.5 0 0 1 1.058.442l9 9c.427.428.555 1.073.33 1.635" clip-rule="evenodd"/></svg>
